X: 15329
T: Glad Eye, The
R: jig
M: 6/8
K: Adorian
E|:=FAc edc|Bdc BAG|Ace a2b|c'bg gaf|
dag fed|^c/d/ec d2B|cBA BAG|EeB AGE:|
|:A3 ecd|EAc ecd|DGB dBc|Bdc B2G|
A3 ecd|EAc ecd|B/c/dc BAG|1 EFG ABG:|2 EFG AGE||

